X: 206
T:Jubilate Deo omnis terra / Shout with joy to God, all the earth / Laudate nomen ejus / Praise his name
N: Derived from Jos1707-Jubilate_Deo_omnis_terra.krn
C: Josquin des Prez
%%abc-version 2.0
%%abcx-abcm2ps-target-version 5.9.1 (29 Sep 2008)
%%abc-creator hum2abc beta
%%abcx-conversion-date 2019/02/12 16:15:48
%%abc-edited-by Jesse Rodin
%%abc-edited-by Victoria Chang
%%abcx-initial-encoding-date 2011/03/22/
%%humdrum-veritas 3329307155
%%humdrum-veritas-data 3730994434
%%linebreak <none>
%%barnumbers 0
L: 1/4
M: 2/1
Q: 1/2=120
%%staves [1 2 3 4]
V: 1 clef=treble
V: 2 clef=treble-8
V: 3 clef=treble-8
V: 4 clef=bass
K: C
[V:1] z8 | 
[V:2] d6d2 | 
[V:3] z8 | 
[V:4] z8 | 
[V:1] A6A2 | 
[V:2] A4d4 | 
[V:3] z8 | 
[V:4] z8 | 
[V:1] E4A4 | 
[V:2] c4A4 | 
[V:3] z8 | 
[V:4] z8 | 
[V:1] G4E4 | 
[V:2] z2c4d2 | 
[V:3] z8 | 
[V:4] z8 | 
[V:1] z2G4A2 | 
[V:2] e4c4 | 
[V:3] z8 | 
[V:4] z8 | 
[V:1] B4G4 | 
[V:2] d4e4 | 
[V:3] z8 | 
[V:4] z8 | 
[V:1] A4B4 | 
[V:2] c2d2B4 | 
[V:3] z8 | 
[V:4] z8 | 
[V:1] c3BA2G2- | 
[V:2] A3Bcde2- | 
[V:3] z8 | 
[V:4] z8 | 
[V:1] GFEDE4 | 
[V:2] edd4^c2 | 
[V:3] z8 | 
[V:4] z8 | 
[V:1] D8 | 
[V:2] d8 | 
[V:3] z8 | 
[V:4] D,6D,2 | 
[V:1] E2F4ED | 
[V:2] c4A4 | 
[V:3] A6A2 | 
[V:4] A,,4D,4 | 
[V:1] E8- | 
[V:2] z2c4d2 | 
[V:3] E4A4 | 
[V:4] C,4A,,4 | 
[V:1] E8 | 
[V:2] e8- | 
[V:3] G4E4 | 
[V:4] z2C,4D,2 | 
[V:1] z8 | 
[V:2] e8 | 
[V:3] z2G4A2 | 
[V:4] E,4C,4 | 
[V:1] z8 | 
[V:2] z8 | 
[V:3] B4G4 | 
[V:4] D,2E,3D,C,B,, | 
[V:1] z8 | 
[V:2] z8 | 
[V:3] A4B2c2- | 
[V:4] A,,2A,2G,2E,2 | 
[V:1] z8 | 
[V:2] z8 | 
[V:3] cBAGF2EF | 
[V:4] F,3E,D,2E,2- | 
[V:1] z4d4 | 
[V:2] z4D4 | 
[V:3] GEA4^G2 | 
[V:4] E,C,D,2B,,4 | 
[V:1] c2A2c4 | 
[V:2] E2F2E2e2- | 
[V:3] A8 | 
[V:4] A,,4z2A,2 | 
[V:1] B8 | 
[V:2] e2dcB4 | 
[V:3] E8 | 
[V:4] G,2E,2G,4 | 
[V:1] A8 | 
[V:2] c2A2c2d2 | 
[V:3] z4A4 | 
[V:4] F,8 | 
[V:1] z2c2B2G2 | 
[V:2] e4d2B2 | 
[V:3] G2E2G4 | 
[V:4] E,4z4 | 
[V:1] A3Bc4- | 
[V:2] d4c4- | 
[V:3] F8 | 
[V:4] D,4A,4 | 
[V:1] c2BAG4- | 
[V:2] c4B2G2 | 
[V:3] E8 | 
[V:4] A,,4E,3F, | 
[V:1] G4z4 | 
[V:2] B3cded2- | 
[V:3] z8 | 
[V:4] G,A,G,4F,E, | 
[V:1] z8 | 
[V:2] dcc3BB2 | 
[V:3] z8 | 
[V:4] F,E,D,C,D,4 | 
[V:1] z2c4B2 | 
[V:2] c8 | 
[V:3] z2e4d2 | 
[V:4] C,8 | 
[V:1] A2G2F2E2 | 
[V:2] z8 | 
[V:3] c2B2d3c | 
[V:4] z8 | 
[V:1] D2C2B,4 | 
[V:2] z8 | 
[V:3] BAA4G2 | 
[V:4] z8 | 
[V:1] A,2A4G2 | 
[V:2] z8 | 
[V:3] c4B4 | 
[V:4] z4z2G,2- | 
[V:1] A4z4 | 
[V:2] A4B4 | 
[V:3] A4G4 | 
[V:4] G,2F,2E,2D,2 | 
[V:1] z4A4 | 
[V:2] A2G4^F2 | 
[V:3] z4c4 | 
[V:4] C,2B,,2A,,4 | 
[V:1] B4B4 | 
[V:2] G4z2g2- | 
[V:3] B3cd4 | 
[V:4] G,,4z2G,2 | 
[V:1] c4B2A2- | 
[V:2] gef2g2d2- | 
[V:3] c2A2B3c | 
[V:4] A,4G,2F,2 | 
[V:1] AGG4^F2 | 
[V:2] dBc2d4 | 
[V:3] G4A4 | 
[V:4] E,4D,4 | 
[V:1] G8 | 
[V:2] B2c2G2c2- | 
[V:3] z2G4G2- | 
[V:4] G,,2C,2C,3C, | 
[V:1] z8 | 
[V:2] c2B2c2g2 | 
[V:3] GGB2A2G2 | 
[V:4] E,2D,2C,2E,2- | 
[V:1] z8 | 
[V:2] g3e/d/d4 | 
[V:3] B3cd4 | 
[V:4] E,F,G,2G,2G,2 | 
[V:1] z8 | 
[V:2] z2g3fd2- | 
[V:3] d2d2d4 | 
[V:4] G,4z2G,2- | 
[V:1] z8 | 
[V:2] def3ecd | 
[V:3] z2d4A2 | 
[V:4] G,2D,2F,4 | 
[V:1] z8 | 
[V:2] e3dB3c | 
[V:3] c4G2B2- | 
[V:4] C,2E,4E,2 | 
[V:1] z8 | 
[V:2] d8 | 
[V:3] B2B2A4 | 
[V:4] D,4z2F,2 | 
[V:1] z8 | 
[V:2] c4z4 | 
[V:3] z2c2B2A2 | 
[V:4] E,2F,2D,2F,2 | 
[V:1] z8 | 
[V:2] z8 | 
[V:3] c3BA2^G2 | 
[V:4] E,3D,C,2B,,2 | 
[V:1] c6c2 | 
[V:2] z4f4- | 
[V:3] A8 | 
[V:4] A,,4z2A,2- | 
[V:1] A4B4 | 
[V:2] f2f2d4 | 
[V:3] z2d4d2 | 
[V:4] A,2F,2G,4- | 
[V:1] G4z2c2- | 
[V:2] e4c4 | 
[V:3] B4c4 | 
[V:4] G,2E,2A,4 | 
[V:1] c2A2B4 | 
[V:2] z2f2d4- | 
[V:3] A4z2d2- | 
[V:4] F,4G,4- | 
[V:1] G4z2c2- | 
[V:2] d4e4 | 
[V:3] d2B2c4 | 
[V:4] G,4C,4 | 
[V:1] c2A2B4 | 
[V:2] c2f4d2 | 
[V:3] A2d4B2 | 
[V:4] F,4G,4 | 
[V:1] G6A2- | 
[V:2] e4d2d2- | 
[V:3] c4B2A2 | 
[V:4] C,4G,2F,2 | 
[V:1] A2G4^F2 | 
[V:2] d2c2d4 | 
[V:3] B2c2A4 | 
[V:4] E,4D,4 | 
[V:1] G8 | 
[V:2] B2e6 | 
[V:3] G4c4- | 
[V:4] E,2C,3D,E,2 | 
[V:1] c6c2 | 
[V:2] c8 | 
[V:3] c2c2c4 | 
[V:4] A,,4z2F,2- | 
[V:1] c4A4 | 
[V:2] z2f4f2 | 
[V:3] A4d4- | 
[V:4] F,2F,2F,4 | 
[V:1] d6d2 | 
[V:2] f4d4 | 
[V:3] d2d2B4 | 
[V:4] D,4z2G,2- | 
[V:1] B4G4 | 
[V:2] z2g4g2 | 
[V:3] G4c4- | 
[V:4] G,2G,2E,4 | 
[V:1] c6c2 | 
[V:2] e4c4 | 
[V:3] c2c2c2c2 | 
[V:4] C,4z2F,2- | 
[V:1] c2c2c4 | 
[V:2] z2f4f2 | 
[V:3] c4A4 | 
[V:4] F,2F,2F,2F,2 | 
[V:1] A4d4 | 
[V:2] f2f2f4 | 
[V:3] d4d2d2 | 
[V:4] F,4D,4 | 
[V:1] d2d2B4 | 
[V:2] d4z2g2 | 
[V:3] B4G4 | 
[V:4] z2G,2G,2G,2 | 
[V:1] G4c4- | 
[V:2] g2g2e4 | 
[V:3] c8 | 
[V:4] E,4C,4 | 
[V:1] c4c4 | 
[V:2] c4f4 | 
[V:3] c4A4- | 
[V:4] F,4F,4- | 
[V:1] A4d4- | 
[V:2] f4f2f2- | 
[V:3] A4A4- | 
[V:4] F,2D,2D,4- | 
[V:1] d2d2d2d2 | 
[V:2] f2f2f2f2 | 
[V:3] A2A2A2A2 | 
[V:4] D,2D,2D,2D,2 | 
[V:1] B4c4 | 
[V:2] e8 | 
[V:3] G4E4 | 
[V:4] E,4C,4 | 
[V:1] A6B2 | 
[V:2] d8 | 
[V:3] F8- | 
[V:4] D,3E,F,2G,2 | 
[V:1] c6BA | 
[V:2] c6d2 | 
[V:3] F8 | 
[V:4] A,4A,,4 | 
[V:1] G8- | 
[V:2] e6dc | 
[V:3] E8- | 
[V:4] C,3D,E,2F,2 | 
[V:1] G8- | 
[V:2] B8- | 
[V:3] E8- | 
[V:4] G,6E,2 | 
[V:1] G8 ||  
[V:2] B8 ||  
[V:3] E8 ||  
[V:4] E,8 ||  
[V:1] [M:2/1]c8 | 
[V:2] [M:2/1]e8 | 
[V:3] [M:2/1]A8 | 
[V:4] [M:2/1]A,,8 | 
[V:1] c4c4 | 
[V:2] e4e4 | 
[V:3] G4G4 | 
[V:4] C,8 | 
[V:1] B8 | 
[V:2] d6e2 | 
[V:3] G8 | 
[V:4] G,,4G,4 | 
[V:1] A8 | 
[V:2] f8 | 
[V:3] c8- | 
[V:4] F,6E,D, | 
[V:1] z4A4 | 
[V:2] z2c3de2- | 
[V:3] c8 | 
[V:4] E,2F,2C,4 | 
[V:1] A4A4 | 
[V:2] e2dcd4 | 
[V:3] z4A4 | 
[V:4] F,8 | 
[V:1] G4E4 | 
[V:2] e2E3FG2- | 
[V:3] B4c4- | 
[V:4] E,4C,4 | 
[V:1] F8 | 
[V:2] G2FEF4 | 
[V:3] c2BAB4 | 
[V:4] D,8 | 
[V:1] E4G4- | 
[V:2] G8 | 
[V:3] c4G3A | 
[V:4] A,,B,,C,D,E,3F, | 
[V:1] G2A2B2c2 | 
[V:2] z8 | 
[V:3] B2c2d2e2 | 
[V:4] G,6C,2 | 
[V:1] d3cB2A2 | 
[V:2] z4d4 | 
[V:3] d6c2 | 
[V:4] G,2D,2G,4- | 
[V:1] G4c4 | 
[V:2] g6e2 | 
[V:3] B2A2G2c2 | 
[V:4] G,2F,2E,2C,2 | 
[V:1] B2d3cBA | 
[V:2] d4f4 | 
[V:3] d2f3edc | 
[V:4] G,2D,6 | 
[V:1] G2A4^G2 | 
[V:2] e2d2e4 | 
[V:3] B2A2B4 | 
[V:4] E,2F,2E,4 | 
[V:1] A8 | 
[V:2] c2f4ed | 
[V:3] A6B2 | 
[V:4] F,2D,2F,2G,2 | 
[V:1] z4A4- | 
[V:2] c2f2e4 | 
[V:3] c2d4c2 | 
[V:4] A,2D,2A,4 | 
[V:1] A2A2A4 | 
[V:2] d4e4- | 
[V:3] d4c4- | 
[V:4] D,3C,A,,4 | 
[V:1] G4G4 | 
[V:2] e8 | 
[V:3] c2BAB4 | 
[V:4] E,8 | 
[V:1] A4G4 | 
[V:2] c2A2B2c2 | 
[V:3] A4z2c2- | 
[V:4] F,4E,2C,2 | 
[V:1] A4B4 | 
[V:2] A4G4 | 
[V:3] c2d4B2 | 
[V:4] F,2D,2G,4 | 
[V:1] G2c3BAG | 
[V:2] c3de4 | 
[V:3] c2e3dcB | 
[V:4] C,4z2C,2 | 
[V:1] F2G4^F2 | 
[V:2] d2c2d4 | 
[V:3] A2G2A4 | 
[V:4] D,2E,2D,4 | 
[V:1] G4z2G2 | 
[V:2] B2c2d4 | 
[V:3] G2c4B2 | 
[V:4] G,,8 | 
[V:1] A4B4 | 
[V:2] z8 | 
[V:3] c2A2d4 | 
[V:4] z2D,2G,,2G,2 | 
[V:1] c6B2 | 
[V:2] z8 | 
[V:3] c8 | 
[V:4] A,6G,2 | 
[V:1] A2G2A4 | 
[V:2] z4A4 | 
[V:3] d2e4d2 | 
[V:4] F,2E,2F,4 | 
[V:1] G2c4B2- | 
[V:2] B2e4dc | 
[V:3] e8- | 
[V:4] E,8- | 
[V:1] B2A4^G2 | 
[V:2] dcBAB4 | 
[V:3] e8 | 
[V:4] E,8 | 
[V:1] A8- | 
[V:2] A2d2e4 | 
[V:3] z4c4 | 
[V:4] F,2D,2A,4 | 
[V:1] A8 | 
[V:2] f6e2 | 
[V:3] d6c2 | 
[V:4] D,4F,4- | 
[V:1] z8 | 
[V:2] d2c4B2 | 
[V:3] d2e2f4 | 
[V:4] F,2E,2D,4 | 
[V:1] G8 | 
[V:2] c8 | 
[V:3] e8 | 
[V:4] C,8- | 
[V:1] A4B2d2- | 
[V:2] z8 | 
[V:3] c4d4- | 
[V:4] C,4B,,4- | 
[V:1] dcBA^G4 | 
[V:2] d8 | 
[V:3] d4B4 | 
[V:4] B,,8 | 
[V:1] A8 | 
[V:2] c4A4 | 
[V:3] c8 | 
[V:4] A,,8 | 
[V:1] G8 | 
[V:2] B6c2 | 
[V:3] B4G4 | 
[V:4] E,8 | 
[V:1] z8 | 
[V:2] d8 | 
[V:3] A8 | 
[V:4] D,8 | 
[V:1] z8 | 
[V:2] B2d3cBA | 
[V:3] G8 | 
[V:4] G,,4z2G,,2 | 
[V:1] z8 | 
[V:2] G4z4 | 
[V:3] z2d4cB | 
[V:4] G,,A,,B,,C,D,E,F,G, | 
[V:1] z4A4 | 
[V:2] z8 | 
[V:3] c2B2A4 | 
[V:4] A,2G,4^F,2 | 
[V:1] B4c4- | 
[V:2] d4e4 | 
[V:3] G8 | 
[V:4] G,4C,4 | 
[V:1] c2B2A4 | 
[V:2] c4d4 | 
[V:3] A8 | 
[V:4] F,8 | 
[V:1] G2A3GFE | 
[V:2] e2c2d4- | 
[V:3] B2A2d4 | 
[V:4] E,2F,2D,2F,2 | 
[V:1] D2G4^F2 | 
[V:2] d2c2d4 | 
[V:3] B2c2A4 | 
[V:4] G,2E,2D,4 | 
[V:1] G4E2G2- | 
[V:2] B4z2B2- | 
[V:3] G8 | 
[V:4] E,3F,G,2E,2 | 
[V:1] GFE4D2 | 
[V:2] B2c2A4 | 
[V:3] z4D4 | 
[V:4] G,2A,2F,4 | 
[V:1] E8- | 
[V:2] G2c2B2e2- | 
[V:3] G3AB2c2- | 
[V:4] E,6A,,2- | 
[V:1] E8- | 
[V:2] edc2B4 | 
[V:3] cBA4^G2 | 
[V:4] A,,B,,C,D,E,4 | 
[V:1] E8- | 
[V:2] A2c4BA | 
[V:3] A8 | 
[V:4] A,,8 | 
[V:1] E8- | 
[V:2] B6G2 | 
[V:3] G6E2 | 
[V:4] E,8 | 
[V:1] E8- | 
[V:2] G6A2 | 
[V:3] E8- | 
[V:4] C,6A,,2 | 
[V:1] E8- | 
[V:2] A8 | 
[V:3] E8- | 
[V:4] A,,8 | 
[V:1] E8 |]  
[V:2] G8 |]  
[V:3] E8 |]  
[V:4] E,,8 |]  



